X: 2
T: Shady Grove / Soldier's Joy  v.1
P: piffero primo a0690
O: arr Greg Rice
%R: reel
F: http://ancients.sudburymuster.org/mus/ssp/pdf/ShadydealF.pdf
Z: 2019 John Chambers <jc:trillian.mit.edu>
M: 2/4
L: 1/16
K: G
z2 |\
A2A2 A4 | B2AA G4 | A2A2 B2d2 | e6 e2 |\
g3g e2e2 | d2BA G4- | G4 z4 | z8 |\
A2BB d2B2 | A4 z2 |
[K:D] |: z2 |\
AFDF AFDF | A2d2 d2cB | AFDF AFDF | G2E2 E2FG |\
AFDF AFDF | A2d2 d2de | fafd egec | d2d2 d2 :|
|: z2 |\
f2f2 fagf | e2e2 egfe | f2f2 fagf | edcB A4 |\
fdfd fagf | ecec egfe | fafd egec | d2d2 d2 :|


